X: 138026
T: BRIAN O'LINN
Q: "Irish Jig."
R: Jig.
%R: jig
B: James Kerr "Merry Melodies" v.1 p.38 s.0 #26
Z: 2016 John Chambers <jc:trillian.mit.edu>
M: 6/8
L: 1/8
K: D
uA |\
ded dFG | ABA ABc | ded dcd | fee efe |\
ded dFG | ABA ug2ug | fef dBA | Bdd d2 :|
|: uA |\
dfa afd | cde ecA | dfa afd | faa a2 uA |\
dfa afd | cde efg | fef dBA | Bdd d2 :|

%%sep 1 1 500
%%sep 1 1 500

